!!!OTL: ICH BIN EIN FEINER JAEGERSKNECHT
!!!ARE: Europa, Mitteleuropa, Deutschland
!!!SCT: F0647
!!!YEM: Copyright 1995, estate of Helmut Schaffrath.
**kern
*ICvox
*Ivox
!! Mixed meters:  2/4; 3/4
*M2/4
*k[b-]
*F:
{8c
=1
8f
8f
8a
8f
=2
8cc
16cc
16a
4g}
=3
{8f
16e
16d
4c
=4
8cc
16cc
16b-
4a}
=5
*M3/4
{8.a
16a
8g
8a
8b-
8a
=6
*M2/4
4.g
8r}
=7
{8f
16a
16b-
=8
*M3/4
4cc
4cc
8ff
8dd
=9
*M2/4
8cc
8a
8cc
16r}
{16cc
=10
8b-
8g
8a
16cc
16cc
=11
*M3/4
8b-
8g
8a}
{16f
16a
8cc
16a
16f
=12
4g
4f
8r}
==
!!!AGN: Staende -, Jaeger - Lied
!!!ONB: ESAC (Essen Associative Code) Database: FINK
!!!AMT: irregular
!!!AIN: vox
!!!EED: Helmut Schaffrath
!!!EEV: 1.0
*-
